en/_assets/data-transfer/icons/postgresql-icon.svg

<svg width="30" height="31" viewBox="0 0 30 31" fill="none" xmlns="http://www.w3.org/2000/svg">
<path d="M22.1359 21.828C22.3195 20.2995 22.2645 20.0754 23.4038 20.323L23.693 20.3484C24.569 20.3882 25.715 20.2076 26.3882 19.895C27.8375 19.223 28.6969 18.1011 27.2678 18.3959C24.0081 19.0679 23.784 17.9649 23.784 17.9649C27.2261 12.8614 28.665 6.38295 27.423 4.79716C24.0354 0.471707 18.1716 2.51712 18.0735 2.57022L18.0422 2.57598C17.3982 2.44244 16.6773 2.36266 15.8676 2.34957C14.3925 2.32535 13.2732 2.73601 12.4241 3.37956C12.4241 3.37956 1.96341 -0.927043 2.45006 8.79556C2.55356 10.8638 5.41683 24.4458 8.83182 20.3434C10.08 18.8433 11.2862 17.575 11.2862 17.575C11.8852 17.9726 12.6023 18.1754 13.3544 18.1026L13.4125 18.053C13.3943 18.2393 13.4024 18.4215 13.4358 18.6371C12.5562 19.6194 12.8147 19.7919 11.0558 20.1536C9.27634 20.5201 10.3218 21.1726 11.0042 21.3431C11.8316 21.5499 13.7459 21.8428 15.0397 20.0334L14.9882 20.2398C15.3333 20.5157 15.3099 22.2228 15.3589 23.4425C15.4079 24.6622 15.4896 25.8004 15.7384 26.4715C15.9872 27.1425 16.2808 28.871 18.5923 28.3759C20.5242 27.9622 22.0013 27.3668 22.1359 21.8279" fill="black"/>
<path d="M22.1359 21.828C22.3195 20.2995 22.2645 20.0754 23.4038 20.323L23.693 20.3484C24.569 20.3882 25.715 20.2076 26.3882 19.895C27.8375 19.223 28.6969 18.1011 27.2678 18.3959C24.0081 19.0679 23.784 17.9649 23.784 17.9649C27.2261 12.8614 28.665 6.38295 27.423 4.79716C24.0354 0.471707 18.1716 2.51712 18.0735 2.57022L18.0422 2.57598C17.3982 2.44244 16.6773 2.36266 15.8676 2.34957C14.3925 2.32535 13.2732 2.73601 12.4241 3.37956C12.4241 3.37956 1.96341 -0.927043 2.45006 8.79556C2.55356 10.8638 5.41683 24.4458 8.83182 20.3434C10.08 18.8433 11.2862 17.575 11.2862 17.575C11.8852 17.9726 12.6023 18.1754 13.3544 18.1026L13.4125 18.053C13.3943 18.2393 13.4024 18.4215 13.4358 18.6371C12.5562 19.6194 12.8147 19.7919 11.0558 20.1536C9.27634 20.5201 10.3218 21.1726 11.0042 21.3431C11.8316 21.5499 13.7459 21.8428 15.0397 20.0334L14.9882 20.2398C15.3333 20.5157 15.3099 22.2228 15.3589 23.4425C15.4079 24.6622 15.4896 25.8004 15.7384 26.4715C15.9872 27.1425 16.2808 28.871 18.5923 28.3759C20.5242 27.9622 22.0013 27.3668 22.1359 21.8279" stroke="black" stroke-width="3.93665"/>
<path d="M27.2665 18.3959C24.0065 19.0678 23.7824 17.9649 23.7824 17.9649C27.2244 12.861 28.6633 6.38245 27.4216 4.79686C24.034 0.47167 18.17 2.51721 18.0721 2.57031L18.0406 2.57595C17.3965 2.44234 16.6757 2.36275 15.8656 2.34954C14.3905 2.32538 13.2716 2.73598 12.4225 3.3794C12.4225 3.3794 1.96158 -0.927015 2.4481 8.79552C2.5516 10.8639 5.4148 24.4459 8.82992 20.3435C10.0781 18.8434 11.2842 17.575 11.2842 17.575C11.8832 17.9727 12.6003 18.1755 13.3521 18.1027L13.4105 18.0531C13.3924 18.2394 13.4007 18.4216 13.4339 18.6372C12.5541 19.6195 12.8126 19.7919 11.0539 20.1537C9.27432 20.5202 10.3198 21.1727 11.0023 21.3432C11.8298 21.55 13.7442 21.8429 15.0377 20.0334L14.9861 20.2399C15.3309 20.5158 15.5729 22.0346 15.5324 23.4113C15.4918 24.7881 15.4647 25.7333 15.7363 26.4716C16.0079 27.2099 16.2786 28.8711 18.5906 28.376C20.5225 27.9623 21.5236 26.8902 21.6629 25.1019C21.7617 23.8306 21.9854 24.0185 21.9995 22.8819L22.1789 22.3437C22.3858 20.6203 22.2118 20.0643 23.402 20.3229L23.6912 20.3483C24.5673 20.3882 25.7138 20.2075 26.3867 19.895C27.8357 19.223 28.6951 18.1011 27.2664 18.3959H27.2665Z" fill="black"/>
<path d="M15.1774 19.3828C15.0876 22.5896 15.1999 25.8188 15.5139 26.6036C15.8281 27.3884 16.5005 28.9148 18.8127 28.4198C20.7444 28.006 21.4473 27.2051 21.7523 25.4374C21.9769 24.1369 22.4099 20.5249 22.4655 19.7849" stroke="white" stroke-width="1.31222" stroke-linecap="round" stroke-linejoin="round"/>
<path d="M12.406 3.30726C12.406 3.30726 1.93801 -0.968132 2.42466 8.75441C2.52816 10.8228 5.39156 24.4053 8.80661 20.3027C10.0546 18.8024 11.1832 17.6257 11.1832 17.6257" stroke="white" stroke-width="1.31222" stroke-linecap="round" stroke-linejoin="round"/>
<path d="M18.0602 2.52657C17.6978 2.6401 23.8831 0.267052 27.3983 4.75551C28.64 6.34117 27.2011 12.8197 23.7591 17.9237" stroke="white" stroke-width="1.31222" stroke-linecap="round" stroke-linejoin="round"/>
<path d="M23.7595 17.9233C23.7595 17.9233 23.9838 19.0266 27.2439 18.3542C28.6723 18.0594 27.8126 19.1814 26.364 19.8538C25.175 20.4051 22.5095 20.5465 22.466 19.7845C22.3539 17.8186 23.8689 18.4159 23.7595 17.9233C23.6607 17.4797 22.9832 17.0443 22.535 15.9585C22.1438 15.0108 17.1691 7.7434 23.9146 8.82274C24.1618 8.77164 22.1553 2.41108 15.8425 2.30765C9.53102 2.20423 9.73809 10.0638 9.73809 10.0638" stroke="white" stroke-width="1.31222" stroke-linecap="round" stroke-linejoin="bevel"/>
<path d="M13.4108 18.5951C12.5309 19.5773 12.7896 19.7498 11.0308 20.1117C9.2512 20.4783 10.2968 21.1306 10.9791 21.3011C11.8066 21.508 13.721 21.8009 15.0145 19.991C15.4085 19.4399 15.0122 18.5606 14.4711 18.3365C14.2097 18.2283 13.8601 18.0926 13.4108 18.5951V18.5951Z" stroke="white" stroke-width="1.31222" stroke-linecap="round" stroke-linejoin="round"/>
<path d="M13.3535 18.5799C13.2648 18.0024 13.5434 17.3152 13.8419 16.5112C14.2905 15.3049 15.3256 14.0985 14.4976 10.272C13.8804 7.42057 9.74083 9.67859 9.73823 10.0652C9.73571 10.4517 9.92547 12.025 9.66908 13.857C9.33454 16.2476 11.1913 18.2694 13.3294 18.0625" stroke="white" stroke-width="1.31222" stroke-linecap="round" stroke-linejoin="round"/>
<path d="M12.3681 10.0061C12.3495 10.1382 12.6101 10.4906 12.9499 10.5376C13.2891 10.5849 13.5794 10.3095 13.5978 10.1776C13.6162 10.0456 13.356 9.90011 13.016 9.85284C12.6766 9.80549 12.3861 9.8744 12.3682 10.0061H12.3681Z" fill="white" stroke="white" stroke-width="0.437402"/>
<path d="M22.7007 9.73657C22.7192 9.86862 22.4589 10.221 22.119 10.2681C21.7795 10.3154 21.4892 10.04 21.4706 9.90807C21.4526 9.77601 21.713 9.63056 22.0525 9.58328C22.3921 9.536 22.6823 9.60485 22.7007 9.73664V9.73657Z" fill="white" stroke="white" stroke-width="0.218701"/>
<path d="M23.9149 8.82422C23.9709 9.86004 23.6917 10.5656 23.6565 11.6682C23.6044 13.271 24.4212 15.1054 23.1904 16.9422" stroke="white" stroke-width="1.31222" stroke-linecap="round" stroke-linejoin="round"/>
</svg>

<svg xmlns="http://www.w3.org/2000/svg" width="30" height="31" fill="none" viewBox="0 0 30 31">
    <path fill="#000" d="M22.136 21.828c.184-1.529.129-1.753 1.268-1.505l.289.025c.876.04 2.022-.14 2.695-.453 1.45-.672 2.309-1.794.88-1.5-3.26.673-3.484-.43-3.484-.43 3.442-5.104 4.881-11.582 3.639-13.168-3.388-4.325-9.251-2.28-9.35-2.227l-.03.006a11.628 11.628 0 0 0-2.175-.226c-1.476-.025-2.595.386-3.444 1.03 0 0-10.46-4.307-9.974 5.416.104 2.068 2.967 15.65 6.382 11.547a62.853 62.853 0 0 1 2.454-2.768c.6.398 1.316.6 2.068.528l.059-.05c-.019.186-.01.369.023.584-.88.982-.621 1.155-2.38 1.517-1.78.366-.734 1.019-.052 1.19.828.206 2.742.499 4.036-1.31l-.052.206c.345.276.322 1.983.37 3.203.05 1.22.132 2.357.38 3.028.25.671.543 2.4 2.854 1.905 1.932-.414 3.41-1.01 3.544-6.548"/>
    <path stroke="#000" stroke-width="3.937" d="M22.136 21.828c.184-1.529.129-1.753 1.268-1.505l.289.025c.876.04 2.022-.14 2.695-.453 1.45-.672 2.309-1.794.88-1.5-3.26.673-3.484-.43-3.484-.43 3.442-5.104 4.881-11.582 3.639-13.168-3.388-4.325-9.251-2.28-9.35-2.227l-.03.006a11.628 11.628 0 0 0-2.175-.226c-1.476-.025-2.595.386-3.444 1.03 0 0-10.46-4.307-9.974 5.416.104 2.068 2.967 15.65 6.382 11.547a62.853 62.853 0 0 1 2.454-2.768c.6.398 1.316.6 2.068.528l.059-.05c-.019.186-.01.369.023.584-.88.982-.621 1.155-2.38 1.517-1.78.366-.734 1.019-.052 1.19.828.206 2.742.499 4.036-1.31l-.052.206c.345.276.322 1.983.37 3.203.05 1.22.132 2.357.38 3.028.25.671.543 2.4 2.854 1.905 1.932-.414 3.41-1.01 3.544-6.548"/>
    <path fill="#000" d="M27.267 18.396c-3.26.672-3.485-.431-3.485-.431 3.442-5.104 4.881-11.583 3.64-13.168-3.388-4.325-9.252-2.28-9.35-2.227l-.031.006a11.634 11.634 0 0 0-2.175-.226c-1.476-.025-2.594.386-3.444 1.03 0 0-10.46-4.307-9.974 5.416.104 2.068 2.967 15.65 6.382 11.547a62.853 62.853 0 0 1 2.454-2.768c.6.398 1.316.6 2.068.528l.059-.05a2.28 2.28 0 0 0 .023.584c-.88.982-.621 1.155-2.38 1.517-1.78.366-.734 1.019-.052 1.19.828.206 2.742.499 4.036-1.31l-.052.206c.345.276.587 1.795.546 3.171-.04 1.377-.067 2.322.204 3.06.272.739.543 2.4 2.855 1.905 1.931-.414 2.933-1.486 3.072-3.274.099-1.271.322-1.084.337-2.22l.179-.538c.207-1.724.033-2.28 1.223-2.021l.29.025c.875.04 2.022-.14 2.695-.453 1.449-.672 2.308-1.794.88-1.5Z"/>
    <path stroke="#fff" stroke-linecap="round" stroke-linejoin="round" stroke-width="1.312" d="M15.177 19.383c-.09 3.207.023 6.436.337 7.22.314.785.986 2.312 3.299 1.817 1.931-.414 2.634-1.215 2.94-2.983.224-1.3.657-4.912.712-5.652M12.406 3.307S1.938-.968 2.425 8.754c.103 2.069 2.967 15.651 6.382 11.549a56.695 56.695 0 0 1 2.376-2.677M18.06 2.527c-.362.113 5.823-2.26 9.338 2.229 1.242 1.585-.197 8.064-3.639 13.168"/>
    <path stroke="#fff" stroke-linecap="round" stroke-linejoin="bevel" stroke-width="1.312" d="M23.76 17.923s.224 1.104 3.484.431c1.428-.295.569.827-.88 1.5-1.189.551-3.855.693-3.898-.07-.112-1.965 1.403-1.368 1.293-1.86-.098-.444-.776-.88-1.224-1.965-.391-.948-5.366-8.216 1.38-7.136.247-.051-1.76-6.412-8.072-6.515-6.312-.104-6.105 7.756-6.105 7.756"/>
    <path stroke="#fff" stroke-linecap="round" stroke-linejoin="round" stroke-width="1.312" d="M13.41 18.595c-.88.982-.62 1.155-2.38 1.517-1.779.366-.733 1.019-.05 1.19.827.206 2.741.499 4.034-1.311.395-.551-.002-1.43-.543-1.654-.261-.109-.61-.244-1.06.258v0Z"/>
    <path stroke="#fff" stroke-linecap="round" stroke-linejoin="round" stroke-width="1.312" d="M13.354 18.58c-.09-.578.19-1.265.488-2.069.448-1.206 1.484-2.412.656-6.239-.618-2.851-4.757-.593-4.76-.207-.002.387.187 1.96-.069 3.792-.334 2.39 1.522 4.412 3.66 4.206"/>
    <path fill="#fff" stroke="#fff" stroke-width=".437" d="M12.368 10.006c-.018.132.242.485.582.532.34.047.63-.229.648-.36.018-.132-.242-.278-.582-.325-.34-.048-.63.021-.648.153Z"/>
    <path fill="#fff" stroke="#fff" stroke-width=".219" d="M22.7 9.737c.02.132-.241.484-.581.531-.34.047-.63-.228-.648-.36-.018-.132.242-.277.581-.325.34-.047.63.022.649.154Z"/>
    <path stroke="#fff" stroke-linecap="round" stroke-linejoin="round" stroke-width="1.312" d="M23.915 8.824c.056 1.036-.223 1.742-.258 2.844-.053 1.603.764 3.437-.467 5.274"/>
</svg>
